!!!COM: Bach, Johann Sebastian
!!!OPR: Joh. Seb. Bachs vierstimmige Choralgesänge
!!!XEN: Four-part Chorales
!!!OTL: 14. Als vierzig Tag' nach Ostern war'n
!!!SCT: BWV 266
!!!SCA: Thematisch-systematisches Verzeichnis der musikalischen Werke Johann Sebastian Bach: Bach-Werke-Verzeichnis (Schmieder)
!!!YOR: Bach Gesellschaft Edition xxxix
!!!ENC: Steven Rasmussen
!!!CDT: 1685/3//-1750/7/28/
!!!OCY: Deutschland
!!!YEC: Copyright (c) 1994, 2000 Center for Computer Assisted Research in the Humanities
!!!YEM: Rights to all derivative editions reserved
!!!YEN: United States of America
**kern	**silbe	**kern	**silbe	**kern	**silbe	**kern	**silbe
*I:[BASSO]	*I:[BASSO]	*I:[TENORE]	*I:[TENORE]	*I:[ALTO]	*I:[ALTO]	*I:[SOPRANO]	*I:[SOPRANO]
*clefF4	*	*clefGv2	*	*clefG2	*	*clefG2	*
*k[f#]	*	*k[f#]	*	*k[f#]	*	*k[f#]	*
*e:	*	*e:	*	*e:	*	*e:	*
*M3/4	*	*M3/4	*	*M3/4	*	*M3/4	*
=1-	=1-	=1-	=1-	=1-	=1-	=1-	=1-
4E	.	4G	.	4B	.	4e	Als
4G	.	4G	.	4B	.	4e	vier-
4E	.	4G	.	4B	.	4e	-zig
=2	=2	=2	=2	=2	=2	=2	=2
4D#	.	4F#	.	2f#	.	2b	Tag'
4BB	.	4d#	.	.	.	.	.
4E	nach	[4e	nach	[4g	nach	4b	nach
=3	=3	=3	=3	=3	=3	=3	=3
4C#	O-	4e]	.	4g]	.	4a	O-
4D#	.	4B	.	4f#	O-	4b	.
4E	.	[4B	O-	4e	.	8gL	.
.	.	.	.	.	.	8aJ	.
=4	=4	=4	=4	=4	=4	=4	=4
4D	.	4B]	.	4f#	.	4b	.
8CL	.	8cL	.	8eL	.	4a	.
8BBJ	.	8eJ	.	8gJ	.	.	.
4C	-stern	8d#L	-stern	8f#L	-stern	4a	-stern
.	.	8eJ	.	8eJ	.	.	.
=5	=5	=5	=5	=5	=5	=5	=5
2BB;	.	2d#;	.	2f#;	.	2b;	war'n
4E	.	4e	.	8BL	.	4g	und
.	.	.	.	8c#J	.	.	.
=6	=6	=6	=6	=6	=6	=6	=6
8DL	.	4A	.	2d	.	4f#	Chri-
8CJ	.	.	.	.	.	.	.
4BB	.	4B	.	.	.	4g	.
4AA	.	4c	.	8eL	.	4a	-stus
.	.	.	.	8f#J	.	.	.
=7	=7	=7	=7	=7	=7	=7	=7
4GG	.	4.d	.	4.g	.	4b	wollt'
4D	.	.	.	.	.	4a	.
.	.	8c	.	8f#	.	.	.
4E	.	4B	.	8f#L	.	4g	gen
.	.	.	.	8eJ	.	.	.
=8	=8	=8	=8	=8	=8	=8	=8
4C	.	4.c	.	8eL	.	2g	Him-
.	.	.	.	8dJ	.	.	.
4AA	.	.	.	4c	.	.	.
.	.	8B	.	.	.	.	.
4D	.	4A	.	4d	.	4f#	-mel
=9	=9	=9	=9	=9	=9	=9	=9
2GG;	.	2B;	.	2d;	.	2g;	fahr'n,
4D	.	4d	.	4f#	.	4a	b'schied
=10	=10	=10	=10	=10	=10	=10	=10
4G	.	2d	.	2g	.	2b	er
4F#	.	.	.	.	.	.	.
[4E	sein'	8eL	.	4g	.	4b	sein'
.	.	8dJ	.	.	.	.	.
=11	=11	=11	=11	=11	=11	=11	=11
4E]	.	4c	.	8f#L	.	2a	JÃ¼n-
.	.	.	.	8eJ	.	.	.
4D#	JÃ¼n-	4B	.	4f#	.	.	.
4BB	-ger	4B	.	4d#	.	4a	-ger
=12	=12	=12	=12	=12	=12	=12	=12
4E	auf	2B	auf	8eL	auf	2g	auf
.	.	.	.	8d#J	.	.	.
4GG	ein	.	.	2e	ein	.	.
4EE	.	4B	ein	.	.	4g	ein
=13	=13	=13	=13	=13	=13	=13	=13
2.BB;	.	2.B;	.	(4e	.	2.f#;	Berg,
.	.	.	.	2d#;)	.	.	.
=14	=14	=14	=14	=14	=14	=14	=14
4C	.	4G	.	4e	.	4e	auf
4AA	.	4A	.	4c	.	4f#	.
4BB	.	4F#	.	4B	.	4d#	ein
=15	=15	=15	=15	=15	=15	=15	=15
2E;	.	2G;	.	2B;	.	2e;	Berg,
4E	voll-	4G	.	4B	.	4e	voll-
=16	=16	=16	=16	=16	=16	=16	=16
4C#	-en-	4G	.	4e	.	2a	-en-
8DL	-det	4F#	.	4d	.	.	.
8Cn	.	.	.	.	.	.	.
8BB	.	4F#	.	4c	.	4a	-det
8AAJ	.	.	.	.	.	.	.
=17	=17	=17	=17	=17	=17	=17	=17
4GG	da	4G	.	4d	.	2b	da
8GL	sein	2B	sein	4e	.	.	.
8F#	.	.	.	.	.	.	.
8E	.	.	.	[4f#	sein	4b	sein
8D#J	.	.	.	.	.	.	.
=18	=18	=18	=18	=18	=18	=18	=18
4E	Amt	2B	Amt	4f#]	.	2g	Amt
8EEL	und	.	.	8eL	Amt	.	.
8FF#	.	.	.	8d#J	.	.	.
8GG	.	4B	.	4e	und	4g	und
8AAJ	.	.	.	.	.	.	.
=19	=19	=19	=19	=19	=19	=19	=19
2.BB;	Werk.	2.B;	.	(4e	.	2.f#;	Werk.
.	.	.	.	2d#;)	.	.	.
=20	=20	=20	=20	=20	=20	=20	=20
4EE	Hal-	4G	Hal-	4B	.	8eL	Hal-
.	.	.	.	.	.	8f#	.
4E	.	4B	.	4e	.	8g	.
.	.	.	.	.	.	8aJ	.
4D#	.	8BL	-le-	4f#	.	4b	.
.	.	8AJ	.	.	.	.	.
=21	=21	=21	=21	=21	=21	=21	=21
8EL	-le-	8GL	.	4.e	.	2b	-le-
8D	.	8F#	.	.	.	.	.
8C	.	8E	.	.	.	.	.
8BBJ	.	8D#J	.	8gL	.	.	.
4C	-lu-	4E	-lu-	8f#	.	4a	-lu-
.	.	.	.	8eJ	.	.	.
=22	=22	=22	=22	=22	=22	=22	=22
2.BB;	-ja!	2.F#;	-ja!	2.d#;	.	2.b;	-ja!
==|!	==|!	==|!	==|!	==|!	==|!	==|!	==|!
*-	*-	*-	*-	*-	*-	*-	*-
!!!RWG: Key is interpreted using the Humdrum key tool.
!!!URL-pdf: https://s9.imslp.org/files/imglnks/usimg/6/6b/IMSLP24489-PMLP09471-CCARH_Bach_Chorales.pdf#page=8 Musedata edition
!!!URL-pdf: https://s9.imslp.org/files/imglnks/usimg/7/7a/IMSLP04155-Bach_-_BGA_253-438.pdf#page=8 	Bach-Gesellschaft Ausgabe, Band 39 (pp.175-276) Leipzig: Breitkopf und Härtel, 1892. Plate B.W. XXXIX.
!!!END: 1994/05/06
!!!EMD: Converted from MuseData to Humdrum Dec 19, 2000, by Andreas Kornstaedt using muse2kern.
!!!EED: Craig Stuart Sapp
!!!EEV: 2024/03/31
!!!filter-keyboard: satb2gs
